desktop/renderer-app/src/assets/image/docs-icon.svg

<?xml version="1.0" encoding="UTF-8"?>
<svg width="22px" height="22px" viewBox="0 0 22 22" version="1.1" xmlns="http://www.w3.org/2000/svg" xmlns:xlink="http://www.w3.org/1999/xlink">
    <title>copy备份 2@2x</title>
    <g id="2.1" stroke="none" stroke-width="1" fill="none" fill-rule="evenodd" stroke-linecap="round" stroke-linejoin="round">
        <g id="首页-房间详情-老师视角" transform="translate(-361.000000, -339.000000)" stroke="#7A7B7C">
            <g id="编组-4" transform="translate(361.000000, 182.000000)">
                <g id="copy备份-2" transform="translate(0.000000, 157.000000)">
                    <path d="M8,5 L12,5 L12,5 L16,9 L16,15 C16,16.1045695 15.1045695,17 14,17 L8,17 C6.8954305,17 6,16.1045695 6,15 L6,7 C6,5.8954305 6.8954305,5 8,5 Z" id="矩形"></path>
                    <path d="M12,5 L16,9 L14,9 C12.8954305,9 12,8.1045695 12,7 L12,5 L12,5 Z" id="矩形"></path>
                </g>
            </g>
        </g>
    </g>
</svg>

<svg width="22" height="22" xmlns="http://www.w3.org/2000/svg"><g stroke="#7A7B7C" fill="none" fill-rule="evenodd" stroke-linecap="round" stroke-linejoin="round"><path d="M8 5h4l4 4v6a2 2 0 0 1-2 2H8a2 2 0 0 1-2-2V7a2 2 0 0 1 2-2Z"/><path d="m12 5 4 4h-2a2 2 0 0 1-2-2V5h0Z"/></g></svg>
